%%%
  VERSION:1
  LANGUAGE:ENGLISH
%%%
  
MODULE BTEST
  !GENERATED BY ROBOTMASTER
  PERS wobjdata wob1:=[FALSE,TRUE,"",[[1160.54,0.00,4.60],[1,0,0,0]],[[0,0,0],[1,0,0,0]]];
  PERS tooldata tl_8:=[TRUE,[[-352.64,0.00,469.28],[0.8660231,0,-0.500004,0]],[20,[0,0,220],[1,0,0,0],0,0,0]];
  PERS tooldata tl_9:=[TRUE,[[-352.64,0.00,469.28],[0.8660231,0,-0.500004,0]],[20,[0,0,220],[1,0,0,0],0,0,0]];
  PROC BTEST_MAIN()
    AccSet 10, 10;
    ConfL\On;
    SingArea\Wrist;
    MoveAbsJ [[0.00,0.00,0.00,0.00,0.00,0.00],[9E+09,9E+09,9E+09,9E+09,9E+09,9E+09]],v500,fine,tl_8;
    !
    !################
    !Tool8
    !################
    FetchT8;
    !
    Spindle20000;
    MoveJ [[-5.00,-10.00,100.00],[0,0.9238795,-0.3826834,0],[0,0,-1,1],[9E+09,9E+09,9E+09,9E+09,9E+09,9E+09]],[1000.00,500,5000,1000],fine,tl_8\Wobj:=wob1;
    MoveJ [[-5.00,-10.00,50.00],[0,0.9238795,-0.3826834,0],[0,0,-1,1],[9E+09,9E+09,9E+09,9E+09,9E+09,9E+09]],[1000.00,500,5000,1000],fine,tl_8\Wobj:=wob1;
    MoveL [[-5.00,-10.00,0.00],[0,0.9238795,-0.3826834,0],[0,0,-1,1],[9E+09,9E+09,9E+09,9E+09,9E+09,9E+09]],[100.00,500,5000,1000],fine,tl_8\Wobj:=wob1;
    TOOLON;
    MoveL [[-5.00,-5.00,0.00],[0,0.9238795,-0.3826834,0],[0,0,-1,1],[9E+09,9E+09,9E+09,9E+09,9E+09,9E+09]],[200.00,500,5000,1000],fine,tl_8\Wobj:=wob1;
    MoveC [[-3.54,-1.46,0.00],[0,0.9238795,-0.3826834,0],[0,0,-1,1],[9E+09,9E+09,9E+09,9E+09,9E+09,9E+09]],[[0.00,0.00,0.00],[0,0.9238795,-0.3826834,0],[0,0,-1,1],[9E+09,9E+09,9E+09,9E+09,9E+09,9E+09]],[200.00,500,5000,1000],fine,tl_8\Wobj:=wob1;
    MoveL [[300.00,0.00,0.00],[0,0.9238795,-0.3826834,0],[0,0,-2,1],[9E+09,9E+09,9E+09,9E+09,9E+09,9E+09]],[200.00,500,5000,1000],fine,tl_8\Wobj:=wob1;
    MoveL [[300.00,300.00,0.00],[0,0.9238795,-0.3826834,0],[0,0,-2,1],[9E+09,9E+09,9E+09,9E+09,9E+09,9E+09]],[200.00,500,5000,1000],fine,tl_8\Wobj:=wob1;
    (...)
    MoveL [[0.00,150.00,0.00],[0.033353,0.9203639,-0.3812272,-0.0805213],[0,0,-1,1],[9E+09,9E+09,9E+09,9E+09,9E+09,9E+09]],[50.00,500,5000,1000],fine,tl_9\Wobj:=wob1;
    MoveL [[0.00,0.00,0.00],[0.033353,0.9203639,-0.3812272,-0.0805213],[0,0,-1,1],[9E+09,9E+09,9E+09,9E+09,9E+09,9E+09]],[50.00,500,5000,1000],fine,tl_9\Wobj:=wob1;
    TOOLOFF;
    MoveJ [[0.87,0.00,4.92],[0.033353,0.9203639,-0.3812272,-0.0805213],[0,0,-1,1],[9E+09,9E+09,9E+09,9E+09,9E+09,9E+09]],[1000.00,500,5000,1000],fine,tl_9\Wobj:=wob1;
    MoveJ [[10.42,0.00,59.09],[0.033353,0.9203639,-0.3812272,-0.0805213],[0,0,-1,1],[9E+09,9E+09,9E+09,9E+09,9E+09,9E+09]],[1000.00,500,5000,1000],fine,tl_9\Wobj:=wob1;
    MoveAbsJ [[0.00,0.00,0.00,0.00,0.00,0.00],[9E+09,9E+09,9E+09,9E+09,9E+09,9E+09]],v500,fine,tl_9;
    PlaceT9;
  ENDPROC
ENDMODULE